packages/icons/src/thunder.svg

<svg width="24" height="24" viewBox="0 0 24 24" fill="none" xmlns="http://www.w3.org/2000/svg">
<path fill-rule="evenodd" clip-rule="evenodd" d="M13.1936 1L13.3736 1.00357C13.7245 1.04957 13.9837 1.31184 14.0138 1.62239L14.0091 1.78091L12.774 9.69733L18.2509 9.69793C18.3387 9.69793 18.4254 9.71208 18.5073 9.73942L18.6259 9.79022C18.9328 9.95304 19.0666 10.2851 18.9681 10.5835L18.8993 10.729L11.3807 22.6568C11.2276 22.8997 10.9291 23.0327 10.6264 22.9931C10.2755 22.9471 10.0163 22.6848 9.98624 22.3743L9.99094 22.2157L11.2237 14.2985L5.74906 14.2987C5.6613 14.2987 5.57457 14.2846 5.49274 14.2572L5.37414 14.2064C5.06723 14.0436 4.93345 13.7116 5.03188 13.4132L5.10072 13.2677L12.6193 1.3398C12.7417 1.14555 12.9573 1.02153 13.1936 1Z" fill="black"/>
</svg>

<svg xmlns="http://www.w3.org/2000/svg" width="24" height="24" fill="none" viewBox="0 0 24 24">
  <path fill="#000" fill-rule="evenodd" d="m13.194 1 .18.004c.35.046.61.308.64.618l-.005.159-1.235 7.916h5.477a.81.81 0 0 1 .256.042l.119.051c.307.163.44.495.342.794l-.069.145-7.518 11.928a.772.772 0 0 1-.755.336c-.35-.046-.61-.308-.64-.619l.005-.158 1.233-7.918H5.749a.808.808 0 0 1-.256-.04l-.119-.052a.663.663 0 0 1-.342-.793l.069-.145L12.619 1.34a.757.757 0 0 1 .575-.34Z" clip-rule="evenodd"/>
</svg>
